V6_wwwroot/ptn/core/icons/fa6/svgs/solid/gift.svg

<svg xmlns="http://www.w3.org/2000/svg" viewBox="0 0 512 512"><!--! Font Awesome Free 6.7.2 by @fontawesome - https://fontawesome.com License - https://fontawesome.com/license/free (Icons: CC BY 4.0, Fonts: SIL OFL 1.1, Code: MIT License) Copyright 2024 Fonticons, Inc. --><path d="M190.5 68.8L225.3 128l-1.3 0-72 0c-22.1 0-40-17.9-40-40s17.9-40 40-40l2.2 0c14.9 0 28.8 7.9 36.3 20.8zM64 88c0 14.4 3.5 28 9.6 40L32 128c-17.7 0-32 14.3-32 32l0 64c0 17.7 14.3 32 32 32l448 0c17.7 0 32-14.3 32-32l0-64c0-17.7-14.3-32-32-32l-41.6 0c6.1-12 9.6-25.6 9.6-40c0-48.6-39.4-88-88-88l-2.2 0c-31.9 0-61.5 16.9-77.7 44.4L256 85.5l-24.1-41C215.7 16.9 186.1 0 154.2 0L152 0C103.4 0 64 39.4 64 88zm336 0c0 22.1-17.9 40-40 40l-72 0-1.3 0 34.8-59.2C329.1 55.9 342.9 48 357.8 48l2.2 0c22.1 0 40 17.9 40 40zM32 288l0 176c0 26.5 21.5 48 48 48l144 0 0-224L32 288zM288 512l144 0c26.5 0 48-21.5 48-48l0-176-192 0 0 224z"/></svg>

<svg xmlns="http://www.w3.org/2000/svg" viewBox="0 0 512 512"><!--! Font Awesome Free 6.4.2 by @fontawesome - https://fontawesome.com License - https://fontawesome.com/license/free (Icons: CC BY 4.0, Fonts: SIL OFL 1.1, Code: MIT License) Copyright 2023 Fonticons, Inc. --><path d="M190.5 68.8L225.3 128H224 152c-22.1 0-40-17.9-40-40s17.9-40 40-40h2.2c14.9 0 28.8 7.9 36.3 20.8zM64 88c0 14.4 3.5 28 9.6 40H32c-17.7 0-32 14.3-32 32v64c0 17.7 14.3 32 32 32H480c17.7 0 32-14.3 32-32V160c0-17.7-14.3-32-32-32H438.4c6.1-12 9.6-25.6 9.6-40c0-48.6-39.4-88-88-88h-2.2c-31.9 0-61.5 16.9-77.7 44.4L256 85.5l-24.1-41C215.7 16.9 186.1 0 154.2 0H152C103.4 0 64 39.4 64 88zm336 0c0 22.1-17.9 40-40 40H288h-1.3l34.8-59.2C329.1 55.9 342.9 48 357.8 48H360c22.1 0 40 17.9 40 40zM32 288V464c0 26.5 21.5 48 48 48H224V288H32zM288 512H432c26.5 0 48-21.5 48-48V288H288V512z"/></svg>
